icons/youtube.svg

<svg width="53" height="53" viewBox="0 0 53 53" fill="none" xmlns="http://www.w3.org/2000/svg">
<path d="M44.7188 0H8.28125C3.70764 0 0 3.70764 0 8.28125V44.7188C0 49.2924 3.70764 53 8.28125 53H44.7188C49.2924 53 53 49.2924 53 44.7188V8.28125C53 3.70764 49.2924 0 44.7188 0Z" fill="#FF0000"/>
<path d="M39.0875 20.0406C38.7563 18.8812 37.9281 18.0531 36.7688 17.7219C34.7813 17.225 26.3344 17.225 26.3344 17.225C26.3344 17.225 18.0531 17.225 15.9 17.7219C14.7406 18.0531 13.9125 18.8812 13.5812 20.0406C13.25 22.1937 13.25 26.5 13.25 26.5C13.25 26.5 13.25 30.8062 13.7469 32.9594C14.0781 34.1187 14.9062 34.9469 16.0656 35.2781C18.0531 35.775 26.5 35.775 26.5 35.775C26.5 35.775 34.7812 35.775 36.9344 35.2781C38.0937 34.9469 38.9219 34.1187 39.2531 32.9594C39.75 30.8062 39.75 26.5 39.75 26.5C39.75 26.5 39.75 22.1937 39.0875 20.0406ZM23.85 30.475V22.525L30.8063 26.5L23.85 30.475Z" fill="white"/>
</svg>

<svg width="53" height="53" fill="none" xmlns="http://www.w3.org/2000/svg"><path d="M44.719 0H8.28A8.281 8.281 0 0 0 0 8.281V44.72A8.281 8.281 0 0 0 8.281 53H44.72A8.281 8.281 0 0 0 53 44.719V8.28A8.281 8.281 0 0 0 44.719 0Z" fill="red"/><path d="M39.087 20.04c-.33-1.159-1.159-1.987-2.318-2.318-1.988-.497-10.435-.497-10.435-.497s-8.28 0-10.434.497c-1.16.331-1.988 1.16-2.319 2.319-.331 2.153-.331 6.459-.331 6.459s0 4.306.497 6.46c.331 1.159 1.16 1.987 2.319 2.318 1.987.497 10.434.497 10.434.497s8.281 0 10.434-.497c1.16-.331 1.988-1.16 2.32-2.319.496-2.153.496-6.459.496-6.459s0-4.306-.663-6.46ZM23.85 30.476v-7.95l6.956 3.975-6.956 3.975Z" fill="#fff"/></svg>
